X:859
T:New Rigged Ship, The
S:Kerr's Merry Melodies
Z:Nigel Gatherer
L:1/8
M:6/8
K:D
A | d2d d2f | d2d d2f | ecA Acd | ecA ABc |
    d2d d2f | d2d d2f | ecA ABc | d3  d2 :|
f | a2f a2f | d2d dfa | b2g b2g | e2e efg |
    a2f a2f | d2d ecA | Bcd ecA | d3  d2 :|
